groups/heteroaromatics/carbazole.svg

<?xml version='1.0' encoding='iso-8859-1'?>
<svg version='1.1' baseProfile='full'
              xmlns='http://www.w3.org/2000/svg'
                      xmlns:rdkit='http://www.rdkit.org/xml'
                      xmlns:xlink='http://www.w3.org/1999/xlink'
                  xml:space='preserve'
width='256px' height='256px' viewBox='0 0 256 256'>
<!-- END OF HEADER -->
<rect style='opacity:1.0;fill:#FFFFFF;stroke:none' width='256.0' height='256.0' x='0.0' y='0.0'> </rect>
<path class='bond-0 atom-0 atom-1' d='M 16.8,132.7 L 54.3,140.7' style='fill:none;fill-rule:evenodd;stroke:#000000;stroke-width:2.0px;stroke-linecap:butt;stroke-linejoin:miter;stroke-opacity:1' />
<path class='bond-1 atom-1 atom-2' d='M 54.3,140.7 L 66.2,177.2' style='fill:none;fill-rule:evenodd;stroke:#000000;stroke-width:2.0px;stroke-linecap:butt;stroke-linejoin:miter;stroke-opacity:1' />
<path class='bond-1 atom-1 atom-2' d='M 60.8,142.1 L 70.6,172.2' style='fill:none;fill-rule:evenodd;stroke:#000000;stroke-width:2.0px;stroke-linecap:butt;stroke-linejoin:miter;stroke-opacity:1' />
<path class='bond-2 atom-2 atom-3' d='M 66.2,177.2 L 103.7,185.2' style='fill:none;fill-rule:evenodd;stroke:#000000;stroke-width:2.0px;stroke-linecap:butt;stroke-linejoin:miter;stroke-opacity:1' />
<path class='bond-3 atom-3 atom-4' d='M 103.7,185.2 L 129.4,156.6' style='fill:none;fill-rule:evenodd;stroke:#000000;stroke-width:2.0px;stroke-linecap:butt;stroke-linejoin:miter;stroke-opacity:1' />
<path class='bond-3 atom-3 atom-4' d='M 101.6,178.8 L 122.9,155.3' style='fill:none;fill-rule:evenodd;stroke:#000000;stroke-width:2.0px;stroke-linecap:butt;stroke-linejoin:miter;stroke-opacity:1' />
<path class='bond-4 atom-4 atom-5' d='M 129.4,156.6 L 167.7,156.6' style='fill:none;fill-rule:evenodd;stroke:#000000;stroke-width:2.0px;stroke-linecap:butt;stroke-linejoin:miter;stroke-opacity:1' />
<path class='bond-5 atom-5 atom-6' d='M 167.7,156.6 L 193.4,185.2' style='fill:none;fill-rule:evenodd;stroke:#000000;stroke-width:2.0px;stroke-linecap:butt;stroke-linejoin:miter;stroke-opacity:1' />
<path class='bond-5 atom-5 atom-6' d='M 174.2,155.3 L 195.5,178.8' style='fill:none;fill-rule:evenodd;stroke:#000000;stroke-width:2.0px;stroke-linecap:butt;stroke-linejoin:miter;stroke-opacity:1' />
<path class='bond-6 atom-6 atom-7' d='M 193.4,185.2 L 230.9,177.2' style='fill:none;fill-rule:evenodd;stroke:#000000;stroke-width:2.0px;stroke-linecap:butt;stroke-linejoin:miter;stroke-opacity:1' />
<path class='bond-7 atom-7 atom-8' d='M 230.9,177.2 L 242.8,140.7' style='fill:none;fill-rule:evenodd;stroke:#000000;stroke-width:2.0px;stroke-linecap:butt;stroke-linejoin:miter;stroke-opacity:1' />
<path class='bond-7 atom-7 atom-8' d='M 226.5,172.2 L 236.3,142.1' style='fill:none;fill-rule:evenodd;stroke:#000000;stroke-width:2.0px;stroke-linecap:butt;stroke-linejoin:miter;stroke-opacity:1' />
<path class='bond-8 atom-8 atom-9' d='M 242.8,140.7 L 217.1,112.2' style='fill:none;fill-rule:evenodd;stroke:#000000;stroke-width:2.0px;stroke-linecap:butt;stroke-linejoin:miter;stroke-opacity:1' />
<path class='bond-9 atom-9 atom-10' d='M 217.1,112.2 L 179.6,120.2' style='fill:none;fill-rule:evenodd;stroke:#000000;stroke-width:2.0px;stroke-linecap:butt;stroke-linejoin:miter;stroke-opacity:1' />
<path class='bond-9 atom-9 atom-10' d='M 215.1,118.5 L 184.0,125.1' style='fill:none;fill-rule:evenodd;stroke:#000000;stroke-width:2.0px;stroke-linecap:butt;stroke-linejoin:miter;stroke-opacity:1' />
<path class='bond-10 atom-10 atom-11' d='M 179.6,120.2 L 156.7,103.5' style='fill:none;fill-rule:evenodd;stroke:#000000;stroke-width:2.0px;stroke-linecap:butt;stroke-linejoin:miter;stroke-opacity:1' />
<path class='bond-11 atom-11 atom-12' d='M 140.4,103.5 L 117.5,120.2' style='fill:none;fill-rule:evenodd;stroke:#000000;stroke-width:2.0px;stroke-linecap:butt;stroke-linejoin:miter;stroke-opacity:1' />
<path class='bond-12 atom-12 atom-13' d='M 117.5,120.2 L 80.0,112.2' style='fill:none;fill-rule:evenodd;stroke:#000000;stroke-width:2.0px;stroke-linecap:butt;stroke-linejoin:miter;stroke-opacity:1' />
<path class='bond-12 atom-12 atom-13' d='M 113.1,125.1 L 82.0,118.5' style='fill:none;fill-rule:evenodd;stroke:#000000;stroke-width:2.0px;stroke-linecap:butt;stroke-linejoin:miter;stroke-opacity:1' />
<path class='bond-13 atom-13 atom-1' d='M 80.0,112.2 L 54.3,140.7' style='fill:none;fill-rule:evenodd;stroke:#000000;stroke-width:2.0px;stroke-linecap:butt;stroke-linejoin:miter;stroke-opacity:1' />
<path class='bond-14 atom-12 atom-4' d='M 117.5,120.2 L 129.4,156.6' style='fill:none;fill-rule:evenodd;stroke:#000000;stroke-width:2.0px;stroke-linecap:butt;stroke-linejoin:miter;stroke-opacity:1' />
<path class='bond-15 atom-10 atom-5' d='M 179.6,120.2 L 167.7,156.6' style='fill:none;fill-rule:evenodd;stroke:#000000;stroke-width:2.0px;stroke-linecap:butt;stroke-linejoin:miter;stroke-opacity:1' />
<path d='M 65.6,175.4 L 66.2,177.2 L 68.1,177.6' style='fill:none;stroke:#000000;stroke-width:2.0px;stroke-linecap:butt;stroke-linejoin:miter;stroke-miterlimit:10;stroke-opacity:1;' />
<path d='M 101.8,184.8 L 103.7,185.2 L 105.0,183.7' style='fill:none;stroke:#000000;stroke-width:2.0px;stroke-linecap:butt;stroke-linejoin:miter;stroke-miterlimit:10;stroke-opacity:1;' />
<path d='M 192.1,183.7 L 193.4,185.2 L 195.3,184.8' style='fill:none;stroke:#000000;stroke-width:2.0px;stroke-linecap:butt;stroke-linejoin:miter;stroke-miterlimit:10;stroke-opacity:1;' />
<path d='M 229.1,177.6 L 230.9,177.2 L 231.5,175.4' style='fill:none;stroke:#000000;stroke-width:2.0px;stroke-linecap:butt;stroke-linejoin:miter;stroke-miterlimit:10;stroke-opacity:1;' />
<path d='M 242.2,142.5 L 242.8,140.7 L 241.5,139.3' style='fill:none;stroke:#000000;stroke-width:2.0px;stroke-linecap:butt;stroke-linejoin:miter;stroke-miterlimit:10;stroke-opacity:1;' />
<path d='M 218.4,113.6 L 217.1,112.2 L 215.3,112.6' style='fill:none;stroke:#000000;stroke-width:2.0px;stroke-linecap:butt;stroke-linejoin:miter;stroke-miterlimit:10;stroke-opacity:1;' />
<path d='M 81.9,112.6 L 80.0,112.2 L 78.7,113.6' style='fill:none;stroke:#000000;stroke-width:2.0px;stroke-linecap:butt;stroke-linejoin:miter;stroke-miterlimit:10;stroke-opacity:1;' />
<path class='atom-1' d='M12.8,151.484 C14.2074,151.783 14.606,149.907 13.1986,149.608 C11.7912,149.309 12.1899,147.432 13.5973,147.731 C15.0047,148.03 15.4033,146.154 13.9959,145.855 C12.5885,145.556 12.9872,143.679 14.3946,143.978 C15.8019,144.277 16.2006,142.401 14.7932,142.102 C13.3858,141.803 13.7844,139.926 15.1918,140.225 C16.5992,140.524 16.9979,138.647 15.5905,138.348 C14.1831,138.05 14.5817,136.173 15.9891,136.472 C17.3965,136.771 17.7951,134.894 16.3877,134.595 C14.9803,134.296 15.379,132.42 16.7864,132.719 C18.1938,133.018 18.5924,131.141 17.185,130.842 C15.7776,130.543 16.1763,128.667 17.5837,128.966 C18.991,129.265 19.3897,127.388 17.9823,127.089 C16.5749,126.79 16.9735,124.914 18.3809,125.213 C19.7883,125.512 20.187,123.635 18.7796,123.336 C17.3722,123.037 17.7708,121.161 19.1782,121.46 C20.5856,121.759 20.9842,119.882 19.5768,119.583 C18.1694,119.284 18.5681,117.407 19.9755,117.706 C21.3829,118.005 21.7815,116.129 20.3741,115.83 C18.9667,115.531 19.3654,113.654 20.7728,113.953' style='fill:none;stroke:#7F7F7F;stroke-width:2.0px;stroke-linecap:butt;stroke-linejoin:miter;stroke-opacity:1' />
<text x='141.7' y='109.1' class='atom-11' style='font-size:23px;font-style:normal;font-weight:normal;fill-opacity:1;stroke:none;font-family:sans-serif;text-anchor:start;fill:#000000' >N</text>
<text x='141.7' y='88.9' class='atom-11' style='font-size:23px;font-style:normal;font-weight:normal;fill-opacity:1;stroke:none;font-family:sans-serif;text-anchor:start;fill:#000000' >H</text>
</svg>

<svg height="256" viewBox="0 0 256 256" width="256" xmlns="http://www.w3.org/2000/svg"><path d="m0 0h256v256h-256z" fill="#fff"/><g fill="none" stroke-width="2"><path d="m16.8 132.7 37.5 8" stroke="#000"/><path d="m54.3 140.7 11.9 36.5" stroke="#000"/><path d="m60.8 142.1 9.8 30.1" stroke="#000"/><path d="m66.2 177.2 37.5 8" stroke="#000"/><path d="m103.7 185.2 25.7-28.6" stroke="#000"/><path d="m101.6 178.8 21.3-23.5" stroke="#000"/><path d="m129.4 156.6h38.3" stroke="#000"/><path d="m167.7 156.6 25.7 28.6" stroke="#000"/><path d="m174.2 155.3 21.3 23.5" stroke="#000"/><path d="m193.4 185.2 37.5-8" stroke="#000"/><path d="m230.9 177.2 11.9-36.5" stroke="#000"/><path d="m226.5 172.2 9.8-30.1" stroke="#000"/><path d="m242.8 140.7-25.7-28.5" stroke="#000"/><path d="m217.1 112.2-37.5 8" stroke="#000"/><path d="m215.1 118.5-31.1 6.6" stroke="#000"/><path d="m179.6 120.2-22.9-16.7" stroke="#000"/><path d="m140.4 103.5-22.9 16.7" stroke="#000"/><path d="m117.5 120.2-37.5-8" stroke="#000"/><path d="m113.1 125.1-31.1-6.6" stroke="#000"/><path d="m80 112.2-25.7 28.5" stroke="#000"/><path d="m117.5 120.2 11.9 36.4" stroke="#000"/><path d="m179.6 120.2-11.9 36.4" stroke="#000"/><path d="m65.6 175.4.6 1.8 1.9.4" stroke="#000" stroke-miterlimit="10"/><path d="m101.8 184.8 1.9.4 1.3-1.5" stroke="#000" stroke-miterlimit="10"/><path d="m192.1 183.7 1.3 1.5 1.9-.4" stroke="#000" stroke-miterlimit="10"/><path d="m229.1 177.6 1.8-.4.6-1.8" stroke="#000" stroke-miterlimit="10"/><path d="m242.2 142.5.6-1.8-1.3-1.4" stroke="#000" stroke-miterlimit="10"/><path d="m218.4 113.6-1.3-1.4-1.8.4" stroke="#000" stroke-miterlimit="10"/><path d="m81.9 112.6-1.9-.4-1.3 1.4" stroke="#000" stroke-miterlimit="10"/><path d="m12.8 151.484c1.407.299 1.806-1.577.399-1.876-1.408-.299-1.009-2.176.398-1.877 1.408.299 1.806-1.577.399-1.876s-1.009-2.176.399-1.877c1.407.299 1.806-1.577.398-1.876-1.407-.299-1.009-2.176.399-1.877 1.407.299 1.806-1.578.399-1.877-1.408-.298-1.009-2.175.398-1.876 1.408.299 1.806-1.578.399-1.877-1.408-.299-1.009-2.175.398-1.876 1.408.299 1.806-1.578.399-1.877s-1.009-2.175.399-1.876c1.407.299 1.806-1.578.398-1.877-1.407-.299-1.008-2.175.399-1.876s1.806-1.578.399-1.877c-1.408-.299-1.009-2.175.398-1.876 1.408.299 1.806-1.578.399-1.877-1.408-.299-1.009-2.176.399-1.877 1.407.299 1.806-1.577.398-1.876-1.407-.299-1.009-2.176.399-1.877" stroke="#7f7f7f"/></g><text font-family="sans-serif" font-size="23" x="141.7" y="109.1">N</text><text font-family="sans-serif" font-size="23" x="141.7" y="88.9">H</text></svg>
